packages/icons/general/SharpMask.svg

<svg xmlns="http://www.w3.org/2000/svg" fill="none" viewBox="0 0 20 20">
    <path fill="currentColor" d="M3.2 1.5H16.8C17.0232 1.5 17.2443 1.54397 17.4506 1.6294C17.6568 1.71484 17.8442 1.84006 18.0021 1.99792C18.1599 2.15578 18.2852 2.34318 18.3706 2.54944C18.456 2.75569 18.5 2.97675 18.5 3.2V16.8C18.5 17.2509 18.3209 17.6833 18.0021 18.0021C17.6833 18.3209 17.2509 18.5 16.8 18.5H3.2C2.74913 18.5 2.31673 18.3209 1.99792 18.0021C1.67911 17.6833 1.5 17.2509 1.5 16.8V3.2C1.5 2.74913 1.67911 2.31673 1.99792 1.99792C2.31673 1.67911 2.74913 1.5 3.2 1.5ZM17.1999 11.1998V7.20037H2.80005V15.7599C2.79999 15.949 2.8372 16.1363 2.90954 16.3111C2.98189 16.4859 3.08795 16.6447 3.22168 16.7784C3.35541 16.9122 3.51419 17.0183 3.68893 17.0907C3.86368 17.1631 4.05098 17.2004 4.24013 17.2004H15.7599C15.949 17.2004 16.1363 17.1631 16.3111 17.0907C16.4858 17.0183 16.6446 16.9122 16.7783 16.7784C16.912 16.6447 17.0181 16.4859 17.0905 16.3111C17.1628 16.1363 17.2 15.949 17.1999 15.7599V12.4001H14.8741C14.4255 13.3125 13.7303 14.0809 12.8672 14.6182C12.0041 15.1555 11.0077 15.4402 9.99105 15.44C7.39855 15.44 5.23016 13.6273 4.68347 11.2003L17.1999 11.1998ZM9.99105 14.2491C10.6812 14.2496 11.3611 14.0813 11.9714 13.7591C12.5818 13.4368 13.1041 12.9703 13.4931 12.4001H6.48816C6.87711 12.9704 7.39953 13.4369 8.00997 13.7592C8.6204 14.0814 9.30078 14.2496 9.99105 14.2491ZM4.70271 10.0796C4.77976 9.5465 5.04632 9.05898 5.45355 8.70637C5.86078 8.35377 6.38142 8.15969 6.92009 8.15969C7.45876 8.15969 7.9794 8.35377 8.38663 8.70637C8.79386 9.05898 9.06042 9.5465 9.13747 10.0796H7.90989C7.84206 9.87052 7.70975 9.68827 7.53193 9.55902C7.35411 9.42976 7.13993 9.36014 6.92009 9.36014C6.70026 9.36014 6.48607 9.42976 6.30825 9.55902C6.13044 9.68827 5.99812 9.87052 5.93029 10.0796H4.70271ZM10.863 10.0796C10.9404 9.54682 11.207 9.05969 11.6142 8.70741C12.0213 8.35512 12.5417 8.16123 13.0801 8.16123C13.6185 8.16123 14.1389 8.35512 14.5461 8.70741C14.9532 9.05969 15.2199 9.54682 15.2973 10.0796H14.0697C14.0019 9.87052 13.8696 9.68827 13.6917 9.55902C13.5139 9.42976 13.2997 9.36014 13.0799 9.36014C12.8601 9.36014 12.6459 9.42976 12.4681 9.55902C12.2903 9.68827 12.1579 9.87052 12.0901 10.0796H10.863ZM17.1995 4.24058C17.1996 4.05143 17.1624 3.86412 17.09 3.68935C17.0177 3.51458 16.9116 3.35577 16.7779 3.222C16.6441 3.08823 16.4854 2.98211 16.3106 2.90971C16.1359 2.83732 15.9486 2.80005 15.7594 2.80005H4.24013C4.05094 2.79999 3.8636 2.83721 3.6888 2.90959C3.514 2.98196 3.35517 3.08807 3.22139 3.22184C3.08762 3.35562 2.98151 3.51444 2.90914 3.68924C2.83677 3.86404 2.79955 4.05139 2.79961 4.24058V6.00053H17.1999L17.1995 4.24058Z"/>
</svg>

<svg xmlns="http://www.w3.org/2000/svg" fill="none" viewBox="0 0 20 20">
    <path fill="currentColor" d="M3.2 1.5h13.6a1.7 1.7 0 0 1 1.7 1.7v13.6a1.7 1.7 0 0 1-1.7 1.7H3.2a1.7 1.7 0 0 1-1.7-1.7V3.2a1.7 1.7 0 0 1 1.7-1.7Zm14 9.7v-4H2.8v8.56a1.44 1.44 0 0 0 1.44 1.44h11.52a1.44 1.44 0 0 0 1.44-1.44V12.4h-2.326a5.44 5.44 0 0 1-4.883 3.04 5.442 5.442 0 0 1-5.308-4.24H17.2Zm-7.21 3.05a4.235 4.235 0 0 0 3.502-1.85H6.488a4.236 4.236 0 0 0 3.503 1.85Zm-5.288-4.17a2.24 2.24 0 0 1 4.434 0H7.91a1.04 1.04 0 0 0-1.98 0H4.703Zm6.16 0a2.24 2.24 0 0 1 4.434 0H14.07a1.04 1.04 0 0 0-1.98 0h-1.227ZM17.2 4.24a1.438 1.438 0 0 0-1.44-1.44H4.24A1.44 1.44 0 0 0 2.8 4.24V6h14.4V4.24Z"/>
</svg>
